X: 1
T: Jimmy Lyons'
M: 4/4
L: 1/8
R: highland
K: Amaj
A,ECE D2FD|EAcA BB,B,C|A,ECE D2FD|1 EBGB cAA2:|2 EBGB cA (3Ace||
aefa eAcA|~d2cd BB,~B,2|aefa eAcA|EBGB cA (3Ace|
aefa eAcA|(3ded cd BB,~B,2|A,ECE D2FD|EBGB cAA2||
